packages/gestalt-icons-android/vr-theme/ic_vr_logo-large_gestalt.svg

<svg width="24" height="24" viewBox="0 0 24 24" fill="none" xmlns="http://www.w3.org/2000/svg">
<path d="M22 4H2V2H22V4Z" fill="black"/>
<path d="M22 22H2V20H22V22Z" fill="black"/>
<path d="M12.6395 6.4643C12.4384 5.84523 11.5625 5.84523 11.3614 6.4643L10.1901 10.0691H6.39979C5.74887 10.0691 5.47822 10.9021 6.00484 11.2847L9.07127 13.5126L7.89999 17.1174C7.69885 17.7364 8.4074 18.2512 8.93401 17.8686L12.0004 15.6407L15.0669 17.8686C15.5935 18.2512 16.302 17.7364 16.1009 17.1174L14.9296 13.5126L17.996 11.2847C18.5227 10.9021 18.252 10.0691 17.6011 10.0691H13.8108L12.6395 6.4643Z" fill="black"/>
</svg>

<svg xmlns="http://www.w3.org/2000/svg" width="24" height="24"><path d="M22 2H2v2h20zm0 18H2v2h20zM12.64 6.46a.67.67 0 0 0-1.28 0l-1.17 3.6H6.4a.67.67 0 0 0-.4 1.22l3.07 2.23-1.17 3.6a.67.67 0 0 0 1.03.76L12 15.64l3.07 2.23a.67.67 0 0 0 1.03-.75l-1.17-3.6L18 11.27a.67.67 0 0 0-.4-1.21h-3.79z"/></svg>
